projects/music-player/images/play.svg

<svg width="39" height="39" viewBox="0 0 39 39" fill="none" xmlns="http://www.w3.org/2000/svg">
<path d="M19.102 0C8.56853 0 0 8.74788 0 19.5C0 30.2521 8.56853 39 19.102 39C29.6355 39 38.2041 30.2521 38.2041 19.5C38.2041 8.74788 29.6355 0 19.102 0ZM26.6959 20.1832L15.5531 27.4957C15.4225 27.5821 15.2717 27.625 15.1225 27.625C14.9919 27.625 14.8597 27.5917 14.7416 27.5258C14.4851 27.383 14.3265 27.11 14.3265 26.8125V12.1875C14.3265 11.89 14.4851 11.617 14.7416 11.4741C14.9935 11.3329 15.309 11.3416 15.5531 11.5043L26.6959 18.8168C26.9229 18.966 27.0612 19.2239 27.0612 19.5C27.0612 19.7761 26.9229 20.034 26.6959 20.1832Z" fill="#F26600"/>
</svg>

<svg width="39" height="39" fill="none" xmlns="http://www.w3.org/2000/svg"><path d="M19.102 0C8.569 0 0 8.748 0 19.5S8.569 39 19.102 39c10.534 0 19.102-8.748 19.102-19.5S29.635 0 19.102 0Zm7.594 20.183-11.143 7.313a.781.781 0 0 1-.811.03.814.814 0 0 1-.416-.713V12.188c0-.298.16-.571.416-.714a.78.78 0 0 1 .811.03l11.143 7.313c.227.149.365.407.365.683a.818.818 0 0 1-.365.683Z" fill="#F26600"/></svg>
